projects/oblique/icons/Stack.svg

<?xml version="1.0" encoding="UTF-8"?><svg id="a" xmlns="http://www.w3.org/2000/svg" viewBox="0 0 24 24"><path d="M18.74973,6.25008v-2.5h-2V1.25008H7.52121L3.24973,7.16121v10.58887h2v2.5h2v2.5h13.5V6.25008h-2ZM17.24973,6.25008h-5.72852l-.86621,1.19873v-2.19873h6.59473v1ZM9.155,6.81844v2.33496h-1.6875l1.6875-2.33496ZM11.155,9.31844v2.33496h-1.6875l1.6875-2.33496ZM15.24973,2.75008v1h-5.72852l-.86621,1.19873v-2.19873h6.59473ZM7.155,4.31844v2.33496h-1.6875l1.6875-2.33496ZM4.74973,16.25008v-8.09668h1.5896l-1.0896,1.50781v6.58887h-.5ZM6.74973,18.75008v-8.09668h1.5896l-1.0896,1.50781v6.58887h-.5ZM19.24973,21.25008h-10.5v-8.09668h3.90527v-5.40332h6.59473v13.5Z"/></svg>

<svg xmlns="http://www.w3.org/2000/svg" viewBox="0 0 24 24"><title>Stack</title><path d="M18.74973,6.25008v-2.5h-2v-2.5H7.52121L3.24973,7.16121V17.75008h2v2.5h2v2.5h13.5v-16.5Zm-1.5,0H11.52121L10.655,7.44881V5.25008h6.59473ZM9.155,6.81844v2.335H7.4675Zm2,2.5v2.335H9.4675Zm4.09473-6.56836v1H9.52121L8.655,4.94881V2.75008ZM7.155,4.31844v2.335H5.4675ZM4.74973,16.25008V8.1534H6.33932L5.24973,9.66121v6.58887Zm2,2.5V10.6534H8.33932L7.24973,12.16121v6.58887Zm12.5,2.5h-10.5V13.1534H12.655V7.75008h6.59473Z" fill="#171717"/></svg>
